seeds/icons/key.svg

<svg id="Layer_1" enable-background="new 0 0 512 512" height="1.5rem" viewBox="0 0 512 512" width="1.5rem" xmlns="http://www.w3.org/2000/svg"><g><path d="m439.702 119.438c0-25.99-21.145-47.134-47.135-47.134-25.989 0-47.133 21.144-47.133 47.134 0 25.988 21.144 47.131 47.133 47.131 25.99-.001 47.135-21.144 47.135-47.131zm-47.135 17.13c-9.447 0-17.133-7.685-17.133-17.131 0-9.448 7.686-17.134 17.133-17.134 9.448 0 17.135 7.686 17.135 17.134 0 9.446-7.687 17.131-17.135 17.131z"/><path d="m472.901 353.464h-33.199v-124.272c43.668-18.678 72.298-61.493 72.298-109.754 0-65.822-53.522-119.376-119.33-119.433-.035 0-.068-.005-.104-.005h-232.966c-30.418 0-55.166 24.748-55.166 55.167v74.306c-58.802 7.401-104.434 57.718-104.434 118.496v208.865c0 30.418 24.748 55.166 55.168 55.166h128.533c30.418 0 55.166-24.748 55.166-55.166v-208.867c0-60.776-45.632-111.093-104.434-118.494v-74.306c.001-13.877 11.29-25.167 25.167-25.167h153.908c-24.744 21.898-40.374 53.875-40.374 89.438 0 48.262 28.631 91.077 72.301 109.755v235.671c0 25.99 21.144 47.134 47.133 47.134 20.749 0 38.409-13.475 44.688-32.134h35.646c8.284 0 15-6.716 15-15v-96.399c-.001-8.285-6.717-15.001-15.001-15.001zm-264.034-105.493v208.863c0 13.876-11.29 25.166-25.166 25.166h-128.533c-13.878 0-25.168-11.29-25.168-25.166v-208.867c0-49.314 40.12-89.434 89.434-89.434s89.433 40.12 89.433 89.438zm249.034 201.892h-33.199c-8.284 0-15 6.716-15 15 0 9.448-7.687 17.134-17.135 17.134-9.447 0-17.133-7.686-17.133-17.134v-246.054c0-6.507-4.195-12.272-10.388-14.273-37.032-11.967-61.913-46.166-61.913-85.098 0-49.314 40.12-89.434 89.434-89.434s89.433 40.12 89.433 89.434c0 38.932-24.881 73.13-61.911 85.098-6.192 2.001-10.388 7.766-10.388 14.273v149.655c0 8.284 6.716 15 15 15h33.199v66.399z"/><path d="m104.434 280.104v120.496c0 8.284 6.716 15 15 15s15-6.716 15-15v-120.496c0-8.284-6.716-15-15-15s-15 6.715-15 15z"/></g></svg>

<svg xmlns="http://www.w3.org/2000/svg" width="1.5rem" height="1.5rem" viewBox="0 0 512 512"><path d="M439.702 119.438c0-25.99-21.145-47.134-47.135-47.134s-47.133 21.144-47.133 47.134c0 25.988 21.144 47.131 47.133 47.131 25.99-.001 47.135-21.144 47.135-47.131m-47.135 17.13c-9.447 0-17.133-7.685-17.133-17.131 0-9.448 7.686-17.134 17.133-17.134 9.448 0 17.135 7.686 17.135 17.134 0 9.446-7.687 17.131-17.135 17.131"/><path d="M472.901 353.464h-33.199V229.192C483.37 210.514 512 167.699 512 119.438 512 53.616 458.478.062 392.67.005c-.035 0-.068-.005-.104-.005H159.6c-30.418 0-55.166 24.748-55.166 55.167v74.306C45.632 136.874 0 187.191 0 247.969v208.865C0 487.252 24.748 512 55.168 512h128.533c30.418 0 55.166-24.748 55.166-55.166V247.967c0-60.776-45.632-111.093-104.434-118.494V55.167C134.434 41.29 145.723 30 159.6 30h153.908c-24.744 21.898-40.374 53.875-40.374 89.438 0 48.262 28.631 91.077 72.301 109.755v235.671c0 25.99 21.144 47.134 47.133 47.134 20.749 0 38.409-13.475 44.688-32.134h35.646c8.284 0 15-6.716 15-15v-96.399c-.001-8.285-6.717-15.001-15.001-15.001M208.867 247.971v208.863c0 13.876-11.29 25.166-25.166 25.166H55.168C41.29 482 30 470.71 30 456.834V247.967c0-49.314 40.12-89.434 89.434-89.434s89.433 40.12 89.433 89.438m249.034 201.892h-33.199c-8.284 0-15 6.716-15 15 0 9.448-7.687 17.134-17.135 17.134-9.447 0-17.133-7.686-17.133-17.134V218.809a15 15 0 0 0-10.388-14.273c-37.032-11.967-61.913-46.166-61.913-85.098 0-49.314 40.12-89.434 89.434-89.434S482 70.124 482 119.438c0 38.932-24.881 73.13-61.911 85.098a15 15 0 0 0-10.388 14.273v149.655c0 8.284 6.716 15 15 15H457.9z"/><path d="M104.434 280.104V400.6c0 8.284 6.716 15 15 15s15-6.716 15-15V280.104c0-8.284-6.716-15-15-15s-15 6.715-15 15"/></svg>
